assets/images/readme/YourBank.svg

<svg width="156" height="41" viewBox="0 0 156 41" fill="none" xmlns="http://www.w3.org/2000/svg">
<path d="M10 20L20 10L30 20L20 30L10 20Z" fill="#CAFF33"/>
<path d="M36.6667 13.3334L30 20V10H20L26.6667 3.33337H36.6667V13.3334Z" fill="#CAFF33"/>
<path d="M36.6667 26.6667L30 20V30H20L26.6667 36.6667H36.6667V26.6667Z" fill="#CAFF33"/>
<path d="M3.33334 26.6667L10 20V30H20L13.3333 36.6667H3.33334L3.33334 26.6667Z" fill="#CAFF33"/>
<path d="M3.33334 13.3334L10 20V10H20L13.3333 3.33337H3.33334L3.33334 13.3334Z" fill="#CAFF33"/>
<path d="M59.3537 11.3333L53.2085 22.1841V29.3323H50.3122V22.1841L44.167 11.3333H47.4663L51.7729 19.3043L56.0544 11.3333H59.3537Z" fill="white"/>
<path d="M64.5084 29.6666C62.6615 29.6666 61.0916 29.0152 59.7987 27.7124C58.5059 26.4096 57.8595 24.8068 57.8595 22.9041C57.8595 21.0013 58.5059 19.3985 59.7987 18.0958C61.0916 16.793 62.6615 16.1416 64.5084 16.1416C66.3721 16.1416 67.942 16.793 69.218 18.0958C70.5108 19.3985 71.1573 21.0013 71.1573 22.9041C71.1573 24.8068 70.5108 26.4096 69.218 27.7124C67.942 29.0152 66.3721 29.6666 64.5084 29.6666ZM61.7128 25.8096C62.4684 26.581 63.4002 26.9667 64.5084 26.9667C65.6165 26.9667 66.5484 26.581 67.3039 25.8096C68.0595 25.0383 68.4373 24.0697 68.4373 22.9041C68.4373 21.7384 68.0595 20.7699 67.3039 19.9985C66.5484 19.2271 65.6165 18.8414 64.5084 18.8414C63.4002 18.8414 62.4684 19.2271 61.7128 19.9985C60.9573 20.7699 60.5795 21.7384 60.5795 22.9041C60.5795 24.0697 60.9573 25.0383 61.7128 25.8096Z" fill="white"/>
<path d="M82.1042 16.4758H84.8242V29.3323H82.1042V27.6867C81.2815 29.0066 79.9802 29.6666 78.2005 29.6666C76.7565 29.6666 75.5896 29.1952 74.6997 28.2524C73.8098 27.3096 73.3649 26.0153 73.3649 24.3697V16.4758H76.0849V24.0869C76.0849 25.0468 76.3368 25.7839 76.8405 26.2982C77.3442 26.8124 78.0326 27.0696 78.9057 27.0696C79.8627 27.0696 80.635 26.7696 81.2227 26.1696C81.8103 25.5525 82.1042 24.6183 82.1042 23.3669V16.4758Z" fill="white"/>
<path d="M90.7248 18.6357C91.4132 17.0415 92.706 16.2444 94.6033 16.2444V19.2528C93.5623 19.1843 92.6557 19.4414 91.8833 20.0242C91.111 20.5899 90.7248 21.5327 90.7248 22.8527V29.3323H88.0048V16.4758H90.7248V18.6357Z" fill="white"/>
<path d="M107.166 19.9985C107.938 20.4099 108.542 20.9756 108.979 21.6956C109.415 22.4155 109.634 23.2469 109.634 24.1897C109.634 25.6639 109.122 26.8896 108.097 27.8667C107.073 28.8438 105.822 29.3323 104.345 29.3323H96.7893V11.3333H103.791C105.235 11.3333 106.452 11.8132 107.443 12.7732C108.45 13.716 108.954 14.8988 108.954 16.3216C108.954 17.8815 108.358 19.1071 107.166 19.9985ZM103.791 14.1103H99.6856V18.8414H103.791C104.429 18.8414 104.966 18.6186 105.403 18.1729C105.839 17.7101 106.057 17.1444 106.057 16.4758C106.057 15.8073 105.839 15.2502 105.403 14.8045C104.966 14.3417 104.429 14.1103 103.791 14.1103ZM104.345 26.5553C105.016 26.5553 105.579 26.3153 106.032 25.8354C106.502 25.3382 106.737 24.7383 106.737 24.0355C106.737 23.3326 106.502 22.7412 106.032 22.2613C105.579 21.7641 105.016 21.5156 104.345 21.5156H99.6856V26.5553H104.345Z" fill="white"/>
<path d="M122.081 16.4758H124.801V29.3323H122.081V27.481C121.057 28.9381 119.588 29.6666 117.674 29.6666C115.944 29.6666 114.467 29.0152 113.241 27.7124C112.015 26.3925 111.403 24.7897 111.403 22.9041C111.403 21.0013 112.015 19.3985 113.241 18.0958C114.467 16.793 115.944 16.1416 117.674 16.1416C119.588 16.1416 121.057 16.8615 122.081 18.3015V16.4758ZM115.256 25.8611C116.012 26.6325 116.96 27.0182 118.102 27.0182C119.244 27.0182 120.192 26.6325 120.948 25.8611C121.703 25.0725 122.081 24.0869 122.081 22.9041C122.081 21.7213 121.703 20.7442 120.948 19.9728C120.192 19.1843 119.244 18.79 118.102 18.79C116.96 18.79 116.012 19.1843 115.256 19.9728C114.5 20.7442 114.123 21.7213 114.123 22.9041C114.123 24.0869 114.5 25.0725 115.256 25.8611Z" fill="white"/>
<path d="M134.595 16.1416C136.039 16.1416 137.206 16.613 138.096 17.5558C138.986 18.4986 139.431 19.7928 139.431 21.4384V29.3323H136.711V21.7213C136.711 20.7613 136.459 20.0242 135.955 19.51C135.452 18.9957 134.763 18.7386 133.89 18.7386C132.933 18.7386 132.161 19.0471 131.573 19.6642C130.985 20.2642 130.692 21.1899 130.692 22.4412V29.3323H127.972V16.4758H130.692V18.1215C131.514 16.8015 132.815 16.1416 134.595 16.1416Z" fill="white"/>
<path d="M155.834 29.3323H152.383L145.432 20.7699V29.3323H142.536V11.3333H145.432V19.4071L152.131 11.3333H155.582L148.454 20.1014L155.834 29.3323Z" fill="white"/>
</svg>

<svg xmlns="http://www.w3.org/2000/svg" width="156" height="41" fill="none"><path fill="#caff33" d="m10 20 10-10 10 10-10 10z"/><path fill="#caff33" d="M36.667 13.333 30 20V10H20l6.667-6.667h10zM36.667 26.667 30 20v10H20l6.667 6.667h10zM3.333 26.667 10 20v10h10l-6.667 6.667h-10zM3.333 13.333 10 20V10h10l-6.667-6.667h-10z"/><path fill="#fff" d="m59.354 11.333-6.145 10.851v7.148h-2.897v-7.148l-6.145-10.85h3.3l4.306 7.97 4.281-7.97zM64.508 29.667q-2.769 0-4.71-1.955-1.939-1.953-1.939-4.808t1.94-4.808q1.939-1.954 4.71-1.954 2.795 0 4.709 1.954 1.94 1.953 1.94 4.808t-1.94 4.808q-1.914 1.955-4.71 1.955m-2.795-3.857q1.133 1.157 2.795 1.157 1.663 0 2.796-1.157t1.133-2.906T67.304 20q-1.133-1.158-2.796-1.158t-2.795 1.157-1.133 2.906 1.133 2.906M82.104 16.476h2.72v12.856h-2.72v-1.645q-1.234 1.98-3.903 1.98-2.166 0-3.501-1.415-1.335-1.414-1.335-3.882v-7.894h2.72v7.61q0 1.44.756 2.212.755.771 2.065.772 1.435 0 2.317-.9.88-.927.881-2.803zM90.725 18.636q1.032-2.392 3.878-2.392v3.009q-1.56-.104-2.72.771-1.158.849-1.158 2.829v6.48h-2.72V16.475h2.72zM107.166 19.999a4.6 4.6 0 0 1 1.813 1.697q.654 1.079.655 2.494 0 2.211-1.537 3.677-1.536 1.465-3.752 1.465h-7.556V11.333h7.002q2.166 0 3.652 1.44 1.51 1.414 1.511 3.549 0 2.34-1.788 3.677m-3.375-5.889h-4.105v4.731h4.105q.957 0 1.612-.668.654-.695.654-1.697t-.654-1.671a2.13 2.13 0 0 0-1.612-.695m.554 12.445q1.007 0 1.687-.72.705-.745.705-1.8 0-1.053-.705-1.774a2.19 2.19 0 0 0-1.687-.745h-4.66v5.04zM122.081 16.476h2.72v12.856h-2.72v-1.851q-1.536 2.186-4.407 2.186-2.594 0-4.433-1.955-1.838-1.98-1.838-4.808 0-2.855 1.838-4.808 1.838-1.954 4.433-1.954 2.871 0 4.407 2.16zm-6.825 9.385q1.133 1.157 2.846 1.157 1.712 0 2.846-1.157 1.133-1.182 1.133-2.957t-1.133-2.931q-1.133-1.183-2.846-1.183t-2.846 1.183q-1.133 1.157-1.133 2.931t1.133 2.957M134.595 16.142q2.166 0 3.501 1.414 1.335 1.415 1.335 3.882v7.894h-2.72v-7.61q0-1.44-.756-2.212-.755-.771-2.065-.771-1.435 0-2.317.925-.881.9-.881 2.777v6.891h-2.72V16.476h2.72v1.646q1.233-1.98 3.903-1.98M155.834 29.332h-3.451l-6.951-8.562v8.562h-2.896V11.333h2.896v8.074l6.699-8.074h3.451l-7.128 8.768z"/></svg>
